X: 37712
T: Soig's Plinn
R: reel
M: 4/4
K: Gmajor
|Be e2 Bg f2|fe de (3gag fg|Be e2 Bg f2|ef de (3gfe fg|
|:de fg ag e2|de/f/ ge ed/c/ B2|(3dcB Be ef a2|1 gf fg f2 ed:|2 gf fg f2 e2||

